dist/svg/globe.svg

<!-- Generated by Trend Micro Style Portal -->
<svg version="1.1" xmlns="http://www.w3.org/2000/svg" width="16" height="16" viewBox="0 0 16 16">
  <title>globe</title>
  <path fill="rgb(34,34,34)" d="M8 0c-4.418 0-8 3.582-8 8s3.582 8 8 8c4.418 0 8-3.582 8-8v0c0-4.418-3.582-8-8-8v0zM12 2l-1 1-1-0.52c-0.46 0.42-0.85-0.12-1-0.5-0.050-0.16-0.76-0.62-1-0.94 0.156-0.013 0.338-0.020 0.522-0.020 1.287 0 2.488 0.365 3.507 0.997l-0.028-0.016zM8 10c0.2 0.248 0.416 0.468 0.652 0.664l0.008 0.006c0.18 0.1 0.49-0.060 0.66 0s0.28 0.090 0.68 0.36c0.14 0.090-0.64 0.87-0.69 1s0 0.52-0.090 0.64c-0.348 0.207-0.767 0.33-1.215 0.33-0.002 0-0.004 0-0.006 0h0c0.060 0.16 0.17 0.45 0.080 0.6s-1 0.23-1.070 0.39-0.12 0.54-0.31 0.68-0.59 0.23-0.7 0-0.050-0.31 0-0.63 0.25-0.7 0-1-1-1-1-1c-0.19 0-0.12-0.45-0.28-0.79-0.23-0.49 0.18-0.74 0.28-1.21s0.36-1 1-1c0.29 0 0.83 0.42 1 0.51s0.5 0 0.76 0.17 0.12 0.14 0.24 0.28zM15 7c-0.070 0.080-0.19 1.1-0.27 1.38s-0.54 0.42-0.73 0.62c-0.37 0.4 0 0.76 0 1-0.45 0.33-0.8 1-1 1 0 0.13-1-1.13-1-1-0.31 0-0.25 0-0.36-0.31s0-0.57 0-0.83c-0.114-0.352-0.222-0.79-0.301-1.237l-0.009-0.063 0.2-0.54c-0.187-0.411-0.364-0.745-0.557-1.069l0.027 0.049c-0.18-0.13-0.33-0.13-0.32-0.42s0.32-0.35 0.32-0.58-0.3-0.27-0.25-0.46c0.082-0.213 0.166-0.391 0.261-0.562l-0.011 0.022c0.403-0.565 0.894-1.038 1.459-1.407l0.021-0.013c1.379 1.041 2.316 2.605 2.517 4.391l0.003 0.029zM6.68 2.75c-0.17 0.1-0.47 0.15-0.68 0.25l-1 0.38c-0.419 0.055-0.775 0.286-0.997 0.615l-0.003 0.005c-0.13 0.22 0.2 0.8 0 1-0.43 0.39 0.070 0.94 0 1 0.080 0.15-0.060 0.25 0.2 0.5 0.090 0.090 0 0.39 0.1 0.49 0.075 0.109 0.151 0.237 0.22 0.369l0.010 0.021c0.050 0.1 0.43 0.54 0.48 0.61s0.5 0.3 0.63 0.45-0.55 0.15-0.61 0.080-0.62-0.37-0.8-0.62-0.070-0.54-0.28-0.69c-0.279-0.107-0.601-0.181-0.937-0.209l-0.013-0.001c-0.3 0-0.74 0.16-1 0-0.248-0.289-0.462-0.618-0.629-0.974l-0.011-0.026c0.4-2.043 1.77-3.697 3.6-4.485l0.040-0.015s1.74-0.56 2 0.5c0 0 0 0.55-0.32 0.75z"></path>
</svg>

<svg width="16" height="16" viewBox="0 0 16 16" fill="rgb(34, 34, 34)" xmlns="http://www.w3.org/2000/svg"><title>globe</title><path d="M8 0C3.582 0 0 3.582 0 8C0 12.418 3.582 16 8 16C12.418 16 16 12.418 16 8C16 3.582 12.418 0 8 0ZM12 2L11 3L10 2.48C9.54 2.9 9.15 2.36 9 1.98C8.95 1.82 8.24 1.36 8 1.04C8.156 1.027 8.338 1.02 8.522 1.02C9.809 1.02 11.01 1.385 12.029 2.017L12.001 2.001L12 2ZM8 10C8.2 10.248 8.416 10.468 8.652 10.664L8.66 10.67C8.84 10.77 9.15 10.61 9.32 10.67C9.49 10.73 9.6 10.76 10 11.03C10.14 11.12 9.36 11.9 9.31 12.03C9.26 12.16 9.31 12.55 9.22 12.67C8.872 12.877 8.453 13 8.005 13C8.003 13 8.001 13 7.999 13C8.059 13.16 8.169 13.45 8.079 13.6C7.989 13.75 7.079 13.83 7.009 13.99C6.939 14.15 6.889 14.53 6.699 14.67C6.509 14.81 6.109 14.9 5.999 14.67C5.889 14.44 5.949 14.36 5.999 14.04C6.049 13.72 6.249 13.34 5.999 13.04C5.749 12.74 4.999 12.04 4.999 12.04C4.809 12.04 4.879 11.59 4.719 11.25C4.489 10.76 4.899 10.51 4.999 10.04C5.099 9.57 5.359 9.04 5.999 9.04C6.289 9.04 6.829 9.46 6.999 9.55C7.169 9.64 7.499 9.55 7.759 9.72C8.019 9.89 7.88 9.86 8 10ZM15 7C14.93 7.08 14.81 8.1 14.73 8.38C14.65 8.66 14.19 8.8 14 9C13.63 9.4 14 9.76 14 10C13.55 10.33 13.2 11 13 11C13 11.13 12 9.87 12 10C11.69 10 11.75 10 11.64 9.69C11.53 9.38 11.64 9.12 11.64 8.86C11.526 8.508 11.418 8.07 11.339 7.623L11.33 7.56L11.53 7.02C11.343 6.609 11.166 6.275 10.973 5.951L11 6C10.82 5.87 10.67 5.87 10.68 5.58C10.69 5.29 11 5.23 11 5C11 4.77 10.7 4.73 10.75 4.54C10.832 4.327 10.916 4.149 11.011 3.978L11 4C11.403 3.435 11.894 2.962 12.459 2.593L12.48 2.58C13.859 3.621 14.796 5.185 14.997 6.971L15 7ZM6.68 2.75C6.51 2.85 6.21 2.9 6 3L5 3.38C4.581 3.435 4.225 3.666 4.003 3.995L4 4C3.87 4.22 4.2 4.8 4 5C3.57 5.39 4.07 5.94 4 6C4.08 6.15 3.94 6.25 4.2 6.5C4.29 6.59 4.2 6.89 4.3 6.99C4.375 7.099 4.451 7.227 4.52 7.359L4.53 7.38C4.58 7.48 4.96 7.92 5.01 7.99C5.06 8.06 5.51 8.29 5.64 8.44C5.77 8.59 5.09 8.59 5.03 8.52C4.97 8.45 4.41 8.15 4.23 7.9C4.05 7.65 4.16 7.36 3.95 7.21C3.671 7.103 3.349 7.029 3.013 7.001L3 7C2.7 7 2.26 7.16 2 7C1.752 6.711 1.538 6.382 1.371 6.026L1.36 6C1.76 3.957 3.13 2.303 4.96 1.515L5 1.5C5 1.5 6.74 0.94 7 2C7 2 7 2.55 6.68 2.75Z" fill="rgb(34, 34, 34)" fill-opacity="1.00"/></svg>
